X:1
T:Do They Miss Me a Home
M:6/8
L:1/8
K:A
 C/2D/2| EEE E2 E/2E/2| A3 E2 E| F3/2 F/2 F A3/2 G/2 F| E3- E z E|\
 EDC B,CD| E A2 z2 A| G3/2 G/2 G GFG| A3- A z A| B3/2 B/2 B BAB| c3 A2 A|\
 B3/2 B/2 B BAB| A3- A z E| F3/2 F/2 F A3/2 G/2 F| E A2 z2 A| GGG GFG|\
 A3- c2 A| ABA GEG| A3- A z z|
